svg/sleep.svg

<svg xmlns="http://www.w3.org/2000/svg" viewBox="0 0 24 24"><path d="M23 12h-6v-2l3.39-4H17V4h6v2l-3.38 4H23zm-8 4H9v-2l3.39-4H9V8h6v2l-3.38 4H15zm-8 4H1v-2l3.39-4H1v-2h6v2l-3.38 4H7z"/></svg>

<?xml version="1.0" encoding="UTF-8"?><!DOCTYPE svg PUBLIC "-//W3C//DTD SVG 1.1//EN" "http://www.w3.org/Graphics/SVG/1.1/DTD/svg11.dtd"><svg xmlns="http://www.w3.org/2000/svg" xmlns:xlink="http://www.w3.org/1999/xlink" version="1.1" id="mdi-sleep" width="24" height="24" viewBox="0 0 24 24"><path d="M23,12H17V10L20.39,6H17V4H23V6L19.62,10H23V12M15,16H9V14L12.39,10H9V8H15V10L11.62,14H15V16M7,20H1V18L4.39,14H1V12H7V14L3.62,18H7V20Z" /></svg>
